src/resources/emergency/E033.svg

<svg height="400" viewBox="0 0 200 200" width="400" xmlns="http://www.w3.org/2000/svg"><path d="m-200 0h200v200h-200z" fill="#ecece7" transform="scale(-1 1)"/><path d="m-195 5h190v190h-190z" fill="#237f52" transform="scale(-1 1)"/><g fill="#ecece7"><path d="m21.382884 23.600586v10.700195h6.313476v-5.964843h45.203125 53.845695 45.20215v5.964843h6.31348v-10.700195h-51.51563-53.845695z" stroke-width="1.57836"/><path d="m21.382889 177.871v-10.70019h6.313476v5.96484h45.203125 53.8457 45.20214v-5.96484h6.31348v10.70019h-51.51563-53.84569z" stroke-width="1.57836"/><g transform="translate(.086964 -.100526)"><path d="m33.930706 34.886497h65.471924v131.89964h-65.471924z"/><path d="m154.71875 80.321183v11.43457h-41.69629v18.160147h41.69629v11.43555l11.41016-10.25781 11.41015-10.25781-11.41015-10.256835z"/></g></g></svg>

<?xml version="1.0" encoding="UTF-8" standalone="no"?>
<svg
   height="380"
   viewBox="0 0 190 190"
   width="380"
   version="1.1"
   id="svg7"
   xmlns="http://www.w3.org/2000/svg"
   xmlns:svg="http://www.w3.org/2000/svg">
  <defs
     id="defs7" />
  <path
     d="M 190,0 H 0 v 190 h 190 z"
     fill="#237f52"
     id="path2" />
  <g
     fill="#ecece7"
     id="g7"
     transform="translate(-5,-5)">
    <path
       d="m 21.382884,23.600586 v 10.700195 h 6.313476 v -5.964843 h 45.203125 53.845695 45.20215 v 5.964843 h 6.31348 V 23.600586 H 126.74518 72.899485 Z"
       stroke-width="1.57836"
       id="path3" />
    <path
       d="m 21.382889,177.871 v -10.70019 h 6.313476 v 5.96484 h 45.203125 53.8457 45.20214 v -5.96484 h 6.31348 V 177.871 H 126.74518 72.89949 Z"
       stroke-width="1.57836"
       id="path4" />
    <g
       transform="translate(0.086964,-0.100526)"
       id="g6">
      <path
         d="M 33.930706,34.886497 H 99.40263 V 166.78614 H 33.930706 Z"
         id="path5" />
      <path
         d="m 154.71875,80.321183 v 11.43457 H 113.02246 V 109.9159 h 41.69629 v 11.43555 l 11.41016,-10.25781 11.41015,-10.25781 -11.41015,-10.256835 z"
         id="path6" />
    </g>
  </g>
</svg>
